X:1
T:Title
%%score ( 1 2 ) { 3 | 4 }
L:1/8
M:3/4
K:G
V:1 treble nm="Grand Piano, Soprano"
V:2 treble 
V:3 treble nm="Choir Pad, Vaye�ethayu, LMD"
V:4 bass 
V:1
 D>D [DG]4 | [DG]2 [GB]2 [FA]2 | z2 c4 | z6 | [Fd]2 G4 | G2 [EB]4 | [EA]2 [DG]4- | [DG]2 [DF]4 | %8
w: By~Leon~M.~Kramer,~ca.~1921 * *||||||||
 z2 A2 z2 | [E^c]2 [Dd]4 | [FB]2 e4 | d2 [E^c]4 | [E^c]2 d2 c2 | z2 A2 z2 | [DF]2 E4- | [CE]2 D4 | %16
w: ||||||||
 DD [CE]4 | E2 [EF]4 | [^DF]2 [EG]4- | [EG]2 E4 | [B,F]2 [EG]4 | [EG]2 A2 G2 | [EA]2 [^DB]4- | %23
w: |||||||
 [DB]6 | [^DF][DF] [EG]4 | [EG]2 [E^G]4 | [E^G]2 A4 | B2 [Ec]4 | [DA]2 [DB]2 [B,G]2 | [GB]2 [Fd]4 | %30
w: |||||||
 [DF]2 [DG]4- | [DG]6 |] %32
w: ||
V:2
 x6 | x6 | G2 G4- | [GB]2 [Ge]4 | x6 | x6 | x6 | x6 | D[DF] E2- [EB]2 | x6 | z2 E4- | E2 z2 z2 | %12
 z2 A4 | [GB]2 E2- [EG]2 | z2 D4 | x6 | x6 | x6 | x6 | x6 | x6 | z2 E4 | x6 | x6 | x6 | x6 | %26
 z2 E4- | E2 z2 z2 | x6 | x6 | x6 | x6 |] %32
V:3
 D>D B,4 | B,2 D2 C2 | B,2 C4 | D2 A,4 | A,2 D4 | D2 D4 | C2[K:bass] B,4 | _B,2 A,4 | F,A, A,4 | %9
 G,2 F,4 | D2 B,2 A,2 | B,2 ^C4 | A,2 A,4 | D2 E4 | A,2 B,4 | G,2 F,4 | G,G, G,4 | G,2 B,4 | %18
 B,2 B,4- | B,2 G,4 | B,2 B,4 | B,2 E,4 | E,2 F,4- | F,6 | B,B, B,4 | B,2 B,4 | B,2 D4 | ^G,2 A,4 | %28
 F,2 G,4 | G,2 A,2 D2 | C2 B,4- | B,6 |] %32
V:4
 D,>D, G,4 | G,2 G,4 | G,2 E,4 | D,2 ^C,4 | C,2 B,,4 | B,,2 C,4 | C,2 D,4- | D,6 | D,D, ^C,4 | %9
 A,,2 B,,4 | B,2 ^G,2 F,2 | ^G,2 A,4 | z2 F,4 | G,2 ^C,4 | D,2 G,,4 | A,,2 D,4 | B,,B,, C,4 | %17
 C,2 B,,4 | B,,2 E,4- | E,2 E,4 | ^D,2 E,4 | E,2 C,4 | C,2 B,,4- | B,,6 | B,,B,, E,4 | E,2 D,4 | %26
 D,2 C,4 | B,,2 A,,4 | D,2 G,,4 | E,2 D,4 | D,2 G,4- | G,6 |] %32

